X:9015
T:La Pastora Enamorada
R:Romance
C:Tradicional
S:Música Tradicional Asturiana, (C) Tello & Tito. Asturies, 2001.
S:http://pagina.de/MusTradAst <telloytito@asturies.org>
N:Romancero vulgar usado para el corro.
A:Asturies
Z:DyC en Teberga
M:2/4
L:1/8
Q:1/4=120
K:Fm
cB
|: A3 c|c3 c|BB BA|G3 c|
|c3 c|BA GF|=E3 F|B3 A|
|GA GF|=EF AG|F2 F2-|[1 F2 cB :|[2F2 z2|


